packages/bezier-icons/icons/chat-progress-filled.svg

<svg width="24" height="24" viewBox="0 0 24 24" fill="none" xmlns="http://www.w3.org/2000/svg">
<path fill-rule="evenodd" clip-rule="evenodd" d="M21.9969 12.006C21.9969 13.3767 21.7209 14.68 21.2211 15.8698V15.8729C20.9114 16.6119 20.8562 17.4338 21.0494 18.2127L21.5922 20.3869C21.7761 21.1167 21.1138 21.7821 20.3809 21.5981L18.2067 21.0554C17.4278 20.8622 16.606 20.9174 15.8669 21.2271C14.6771 21.7269 13.3738 22.0029 12.0031 22.0029C6.49862 22.0029 2 17.5104 2 12.006C1.99694 6.48008 6.47716 2.00293 12.0031 2.00293C17.5075 2.00293 21.9969 6.50155 21.9969 12.006ZM6.20628 11.9928C6.20628 12.7374 6.81476 13.3459 7.55934 13.3459C8.30392 13.3459 8.91239 12.7374 8.91239 11.9928C8.91239 11.2493 8.30392 10.6408 7.55934 10.6408C6.81476 10.6408 6.20628 11.2493 6.20628 11.9928ZM12.0399 13.3459C11.2963 13.3459 10.6869 12.7374 10.6869 11.9928C10.6869 11.2493 11.2963 10.6408 12.0399 10.6408C12.7845 10.6408 13.393 11.2493 13.393 11.9928C13.393 12.7374 12.7845 13.3459 12.0399 13.3459ZM15.1679 11.9928C15.1679 12.7374 15.7763 13.3459 16.5209 13.3459C17.2645 13.3459 17.874 12.7374 17.874 11.9928C17.874 11.2493 17.2645 10.6408 16.5209 10.6408C15.7763 10.6408 15.1679 11.2493 15.1679 11.9928Z" fill="#313234"/>
</svg>

<svg xmlns="http://www.w3.org/2000/svg" width="24" height="24" fill="none" viewBox="0 0 24 24"><path fill="#313234" fill-rule="evenodd" d="M21.997 12.006c0 1.37-.276 2.674-.776 3.864v.003a3.73 3.73 0 0 0-.172 2.34l.543 2.174a.998.998 0 0 1-1.211 1.211l-2.174-.543a3.73 3.73 0 0 0-2.34.172c-1.19.5-2.493.776-3.864.776C6.5 22.003 2 17.51 2 12.006 1.997 6.48 6.477 2.003 12.003 2.003c5.505 0 9.994 4.499 9.994 10.003m-15.79-.013c0 .744.608 1.353 1.352 1.353s1.353-.609 1.353-1.353-.608-1.352-1.353-1.352c-.744 0-1.353.608-1.353 1.352m5.833 1.353a1.357 1.357 0 0 1-1.353-1.353c0-.744.61-1.352 1.353-1.352.745 0 1.353.608 1.353 1.352s-.609 1.353-1.353 1.353m3.128-1.353c0 .744.608 1.353 1.353 1.353.744 0 1.353-.609 1.353-1.353s-.61-1.352-1.353-1.352c-.745 0-1.353.608-1.353 1.352" clip-rule="evenodd"/></svg>
